packages/components/icon/src/assets/icons/split.svg

<svg width="24" height="24" viewBox="0 0 24 24" fill="none" xmlns="http://www.w3.org/2000/svg">
<path fill-rule="evenodd" clip-rule="evenodd" d="M17.6023 3C17.8048 3 17.9747 3.0687 18.1121 3.2061C18.2495 3.34349 18.3182 3.51343 18.3182 3.71591V8.35847C18.3182 8.6188 18.2459 8.74897 18.1012 8.74897C18.0289 8.74897 17.9349 8.69112 17.8192 8.57541L16.3006 7.05682L11.7448 11.5909L16.3006 16.1467L17.8192 14.6281C17.9349 14.5124 18.0362 14.4545 18.1229 14.4545C18.1808 14.4545 18.2278 14.4871 18.2639 14.5522C18.3001 14.6173 18.3182 14.7076 18.3182 14.8233V19.4659C18.3182 19.6684 18.2495 19.8383 18.1121 19.9757C17.9747 20.1131 17.8048 20.1818 17.6023 20.1818H12.9597C12.7138 20.1818 12.5909 20.1095 12.5909 19.9649C12.5909 19.8781 12.6415 19.7841 12.7428 19.6829L14.2614 18.1643L10.1395 14.0424C9.86467 13.7676 9.48864 13.5289 9.01136 13.3264C8.53409 13.124 8.10021 13.0227 7.70971 13.0227H4.47727C4.34711 13.0227 4.23502 12.9757 4.14101 12.8817C4.047 12.7877 4 12.6756 4 12.5455V10.6364C4 10.5062 4.047 10.3941 4.14101 10.3001C4.23502 10.2061 4.34711 10.1591 4.47727 10.1591H7.70971C8.10021 10.1591 8.53409 10.0615 9.01136 9.86622C9.48864 9.67097 9.86467 9.43595 10.1395 9.16116L14.2614 5.03926L12.7428 3.52066C12.6415 3.41942 12.5909 3.31818 12.5909 3.21694C12.5909 3.07231 12.7138 3 12.9597 3H17.6023Z" fill="currentColor"/>
</svg>

<svg viewBox="0 0 24 24" fill="none" xmlns="http://www.w3.org/2000/svg"><path fill-rule="evenodd" clip-rule="evenodd" d="M17.602 3c.203 0 .373.069.51.206a.692.692 0 0 1 .206.51v4.642c0 .26-.072.391-.217.391-.072 0-.166-.058-.282-.174l-1.518-1.518-4.556 4.534 4.556 4.556 1.518-1.519c.116-.116.217-.174.304-.174.058 0 .105.033.14.098a.562.562 0 0 1 .055.271v4.643a.692.692 0 0 1-.206.51.692.692 0 0 1-.51.206H12.96c-.246 0-.37-.072-.37-.217 0-.087.052-.18.153-.282l1.518-1.519-4.121-4.122c-.275-.274-.651-.513-1.129-.716-.477-.202-.91-.303-1.301-.303H4.477a.46.46 0 0 1-.336-.141.459.459 0 0 1-.141-.336v-1.91a.46.46 0 0 1 .141-.336.46.46 0 0 1 .336-.14H7.71c.39 0 .824-.098 1.301-.294.478-.195.854-.43 1.129-.705l4.12-4.121-1.518-1.518c-.101-.102-.152-.203-.152-.304 0-.145.123-.217.369-.217h4.642Z" fill="currentColor"/></svg>
